dist/img/vk.svg

<svg width="40" height="40" viewBox="0 0 40 40" fill="none" xmlns="http://www.w3.org/2000/svg">
<path d="M20 0C16.0444 0 12.1776 1.17298 8.8886 3.37061C5.59962 5.56823 3.03617 8.69181 1.52242 12.3463C0.00866576 16.0009 -0.387401 20.0222 0.384303 23.9018C1.15601 27.7814 3.06082 31.3451 5.85787 34.1421C8.65492 36.9392 12.2186 38.844 16.0982 39.6157C19.9778 40.3874 23.9992 39.9913 27.6537 38.4776C31.3082 36.9638 34.4318 34.4004 36.6294 31.1114C38.827 27.8224 40 23.9556 40 20C40 14.6957 37.8929 9.60859 34.1421 5.85786C30.3914 2.10714 25.3043 0 20 0ZM31.5273 27.8273C30.9455 27.9091 28.1 27.8273 27.9523 27.8273C27.2167 27.8369 26.507 27.556 25.9773 27.0455C25.3773 26.4659 24.8409 25.8295 24.2546 25.2273C24.0818 25.0424 23.894 24.8721 23.6932 24.7182C23.225 24.3591 22.7614 24.4386 22.5409 24.9932C22.3688 25.59 22.2486 26.2006 22.1818 26.8182C22.1432 27.3773 21.7886 27.7273 21.1614 27.7659C20.7727 27.7864 20.3841 27.7955 20 27.7841C18.6001 27.7764 17.222 27.436 15.9796 26.7909C14.6348 26.0423 13.4631 25.0185 12.5409 23.7864C11.025 21.85 9.81364 19.7227 8.73182 17.5295C8.67501 17.4182 7.56592 15.0591 7.53864 14.9477C7.43864 14.5773 7.53864 14.2205 7.84546 14.0955C8.04092 14.0205 11.6955 14.0955 11.7568 14.0955C12.0287 14.0936 12.2941 14.1783 12.5148 14.3372C12.7354 14.4961 12.8997 14.7211 12.9841 14.9795C13.6603 16.7091 14.5852 18.3307 15.7296 19.7932C15.8899 19.988 16.0774 20.1587 16.2864 20.3C16.5841 20.5045 16.8659 20.4341 16.9886 20.0886C17.1343 19.6125 17.2198 19.1201 17.2432 18.6227C17.2636 17.6364 17.2432 16.9886 17.1886 16.0023C17.1523 15.3705 16.9296 14.8182 15.9977 14.6386C15.7114 14.5864 15.6864 14.35 15.8705 14.1136C16.2546 13.625 16.7796 13.5455 17.3682 13.5159C18.2455 13.4659 19.1227 13.5 20 13.5159H20.1909C20.5727 13.5145 20.9536 13.5534 21.3273 13.6318C21.5484 13.6769 21.749 13.7922 21.8992 13.9605C22.0495 14.1288 22.1415 14.3412 22.1614 14.5659C22.2065 14.8148 22.2255 15.0676 22.2182 15.3205C22.1955 16.3955 22.1432 17.4727 22.1318 18.5477C22.1213 18.9743 22.1601 19.4006 22.2477 19.8182C22.3727 20.3909 22.7659 20.5341 23.1568 20.1205C23.6634 19.5869 24.1277 19.0147 24.5455 18.4091C25.2859 17.3052 25.896 16.1192 26.3636 14.875C26.6182 14.2364 26.8182 14.0955 27.5 14.0955H31.3773C31.6078 14.0914 31.8377 14.1221 32.0591 14.1864C32.1375 14.207 32.2108 14.2435 32.2743 14.2937C32.3379 14.344 32.3905 14.4068 32.4287 14.4783C32.4669 14.5497 32.4899 14.6283 32.4963 14.7091C32.5027 14.7899 32.4924 14.8711 32.4659 14.9477C32.275 15.7977 31.8159 16.5227 31.3296 17.2205C30.5409 18.3364 29.7091 19.425 28.9023 20.5273C28.8052 20.6698 28.7164 20.8177 28.6364 20.9704C28.3318 21.5205 28.3545 21.8273 28.7955 22.2818C29.5 23.0068 30.2523 23.6841 30.9318 24.4295C31.4302 24.9719 31.8804 25.5567 32.2773 26.1773C32.7614 26.9591 32.4546 27.6954 31.5273 27.8273Z" fill="#7700FF"/>
</svg>

<svg width="40" height="40" fill="none" xmlns="http://www.w3.org/2000/svg"><path d="M20 0a20 20 0 1 0 0 40 20 20 0 0 0 0-40Zm11.527 27.827c-.582.082-3.427 0-3.575 0a2.794 2.794 0 0 1-1.975-.782c-.6-.58-1.136-1.216-1.722-1.818a4.59 4.59 0 0 0-.562-.509c-.468-.359-.932-.28-1.152.275a10.764 10.764 0 0 0-.36 1.825c-.038.56-.392.91-1.02.948-.388.02-.777.03-1.161.018a8.83 8.83 0 0 1-4.02-.993 10.944 10.944 0 0 1-3.44-3.005c-1.515-1.936-2.726-4.063-3.808-6.257-.057-.11-1.166-2.47-1.193-2.581-.1-.37 0-.728.306-.853.196-.075 3.85 0 3.912 0a1.282 1.282 0 0 1 1.227.884 19.092 19.092 0 0 0 2.746 4.814c.16.195.347.366.556.507.298.204.58.134.703-.211.145-.476.23-.969.254-1.466.02-.987 0-1.634-.054-2.62-.037-.633-.26-1.185-1.191-1.364-.287-.053-.312-.289-.127-.525.384-.489.909-.569 1.497-.598.878-.05 1.755-.016 2.632 0h.19c.383-.002.764.037 1.137.116a1.047 1.047 0 0 1 .834.934c.045.249.064.502.057.754-.023 1.075-.075 2.153-.086 3.228-.01.426.028.853.116 1.27.125.573.518.716.909.302.506-.533.97-1.105 1.389-1.71.74-1.105 1.35-2.29 1.818-3.535.254-.639.454-.78 1.136-.78h3.877c.23-.004.46.027.682.091a.588.588 0 0 1 .407.762c-.191.85-.65 1.575-1.136 2.273-.79 1.115-1.62 2.204-2.428 3.306-.097.143-.186.29-.266.443-.304.55-.281.857.16 1.312.704.725 1.456 1.402 2.136 2.148a12.68 12.68 0 0 1 1.345 1.747c.484.782.178 1.518-.75 1.65Z" fill="#70F"/></svg>
